icons/monitor-altB.svg

<svg width="24" height="24" viewBox="0 0 24 24" fill="none" xmlns="http://www.w3.org/2000/svg">
<path d="M21 13C21 15.2 19.2 17 17 17H7C4.8 17 3 15.2 3 13H21Z" fill="black"/>
<path fill-rule="evenodd" clip-rule="evenodd" d="M2.25 12.25H21.75V13C21.75 15.6142 19.6142 17.75 17 17.75H7C4.38579 17.75 2.25 15.6142 2.25 13V12.25ZM3.83814 13.75C4.17954 15.1781 5.47206 16.25 7 16.25H17C18.5279 16.25 19.8205 15.1781 20.1619 13.75H3.83814Z" fill="black"/>
<path fill-rule="evenodd" clip-rule="evenodd" d="M7 3.75C5.21421 3.75 3.75 5.21421 3.75 7V12.25H20.25V7C20.25 5.12646 18.7981 3.75 17 3.75H7ZM2.25 7C2.25 4.38579 4.38579 2.25 7 2.25H17C19.6019 2.25 21.75 4.27354 21.75 7V13.75H2.25V7Z" fill="black"/>
<path fill-rule="evenodd" clip-rule="evenodd" d="M11.25 21V17H12.75V21H11.25Z" fill="black"/>
<path fill-rule="evenodd" clip-rule="evenodd" d="M6.75 21C6.75 20.5858 7.08579 20.25 7.5 20.25H16.5C16.9142 20.25 17.25 20.5858 17.25 21C17.25 21.4142 16.9142 21.75 16.5 21.75H7.5C7.08579 21.75 6.75 21.4142 6.75 21Z" fill="black"/>
</svg>

<svg xmlns="http://www.w3.org/2000/svg" fill="none" viewBox="0 0 24 24">
  <path fill="#000" d="M21 13c0 2.2-1.8 4-4 4H7c-2.2 0-4-1.8-4-4h18Z"/>
  <path fill="#000" fill-rule="evenodd" d="M2.25 12.25h19.5V13A4.762 4.762 0 0 1 17 17.75H7A4.762 4.762 0 0 1 2.25 13v-.75Zm1.588 1.5A3.266 3.266 0 0 0 7 16.25h10a3.266 3.266 0 0 0 3.162-2.5H3.838Z" clip-rule="evenodd"/>
  <path fill="#000" fill-rule="evenodd" d="M7 3.75A3.262 3.262 0 0 0 3.75 7v5.25h16.5V7c0-1.874-1.452-3.25-3.25-3.25H7ZM2.25 7A4.762 4.762 0 0 1 7 2.25h10c2.602 0 4.75 2.024 4.75 4.75v6.75H2.25V7Zm9 14v-4h1.5v4h-1.5Z" clip-rule="evenodd"/>
  <path fill="#000" fill-rule="evenodd" d="M6.75 21a.75.75 0 0 1 .75-.75h9a.75.75 0 0 1 0 1.5h-9a.75.75 0 0 1-.75-.75Z" clip-rule="evenodd"/>
</svg>
